public/img/icons/heart.svg

<svg width="20" height="20" viewBox="0 0 20 20" fill="none" xmlns="http://www.w3.org/2000/svg">
         <path d="M18.5826 2.81257C17.6375 1.88979 16.3319 1.42859 14.665 1.42859C14.2038 1.42859 13.733 1.50857 13.2532 1.66845C12.7732 1.82845 12.3267 2.04431 11.9141 2.31588C11.501 2.58737 11.146 2.84232 10.8481 3.08034C10.5506 3.31845 10.2678 3.57148 10 3.83926C9.73207 3.57148 9.44932 3.31845 9.1518 3.08034C8.85408 2.84232 8.4989 2.58752 8.08587 2.31588C7.67291 2.04419 7.22645 1.82849 6.74657 1.66845C6.26673 1.50861 5.79603 1.42859 5.33476 1.42859C3.66803 1.42859 2.36231 1.8899 1.4174 2.81257C0.472493 3.73516 0 5.01484 0 6.65174C0 7.15027 0.087564 7.66385 0.26234 8.19185C0.437116 8.72013 0.636285 9.17034 0.859456 9.54229C1.08259 9.9142 1.33562 10.2769 1.61837 10.6304C1.90112 10.9838 2.10775 11.2273 2.23781 11.3613C2.36798 11.4952 2.47032 11.592 2.54471 11.6516L9.5089 18.3704C9.64286 18.5043 9.80654 18.5715 9.99996 18.5715C10.1934 18.5715 10.3572 18.5043 10.4911 18.3704L17.4442 11.6737C19.1481 9.9701 20 8.29599 20 6.65159C20 5.01457 19.5275 3.735 18.5826 2.81257ZM16.4732 10.6248L10 16.8635L3.51577 10.6135C2.12436 9.22245 1.42878 7.9016 1.42878 6.65159C1.42878 6.049 1.50876 5.51693 1.66864 5.05573C1.82864 4.59446 2.03324 4.2279 2.28249 3.95633C2.53177 3.68469 2.83492 3.46351 3.19206 3.29226C3.54939 3.12115 3.89906 3.0058 4.24126 2.9463C4.58347 2.88688 4.94799 2.85713 5.33495 2.85713C5.7218 2.85713 6.13855 2.95189 6.58497 3.14168C7.03131 3.33139 7.44239 3.56949 7.81809 3.85591C8.19388 4.14252 8.51567 4.41034 8.78364 4.6595C9.05146 4.90891 9.27459 5.13755 9.45319 5.3459C9.58704 5.50966 9.76948 5.59151 10 5.59151C10.2307 5.59151 10.4129 5.50966 10.5469 5.3459C10.7255 5.13755 10.9488 4.90879 11.2166 4.6595C11.4844 4.41034 11.8063 4.14264 12.1819 3.85591C12.5577 3.56949 12.9688 3.33139 13.4153 3.14168C13.8616 2.95193 14.2785 2.85713 14.6654 2.85713C15.0522 2.85713 15.4167 2.88688 15.759 2.9463C16.1013 3.00576 16.451 3.12115 16.8082 3.29226C17.1654 3.46347 17.4685 3.68481 17.7177 3.95633C17.967 4.2279 18.1717 4.59446 18.3317 5.05573C18.4914 5.51693 18.5714 6.049 18.5714 6.65159C18.5713 7.9016 17.872 9.22612 16.4732 10.6248Z" fill="#D95204"/>
         </svg>

<svg xmlns="http://www.w3.org/2000/svg" width="20" height="20" fill="none"  xmlns:v="https://vecta.io/nano"><path d="M18.583 2.813c-.945-.923-2.251-1.384-3.918-1.384a4.45 4.45 0 0 0-1.412.24c-.48.16-.926.376-1.339.647l-1.066.764a10.31 10.31 0 0 0-.848.759 10.33 10.33 0 0 0-.848-.759c-.298-.238-.653-.493-1.066-.764s-.859-.487-1.339-.647-.951-.24-1.412-.24c-1.667 0-2.972.461-3.917 1.384S0 5.015 0 6.652a4.89 4.89 0 0 0 .262 1.54c.175.528.374.978.597 1.35a9.88 9.88 0 0 0 .759 1.088l.619.731.307.29 6.964 6.719a.67.67 0 0 0 .491.201.67.67 0 0 0 .491-.201l6.953-6.697C19.148 9.97 20 8.296 20 6.652c0-1.637-.473-2.917-1.417-3.839zm-2.109 7.812L10 16.864l-6.484-6.25C2.124 9.222 1.429 7.902 1.429 6.652c0-.603.08-1.135.24-1.596s.365-.828.614-1.099.552-.493.91-.664.707-.286 1.049-.346.707-.089 1.094-.089.804.095 1.25.285.857.428 1.233.714l.966.804.67.686c.134.164.316.246.547.246s.413-.082.547-.246c.179-.208.402-.437.67-.686a13.07 13.07 0 0 1 .965-.804c.376-.286.787-.525 1.233-.714s.863-.285 1.25-.285.751.03 1.094.089.692.175 1.049.346.66.393.91.664.454.638.614 1.099.24.993.24 1.596c0 1.25-.699 2.575-2.098 3.973z" fill="#d95204"/></svg>
